X:1
T:George Collins
M:6/8
L:1/8
K:G
 z4 z G| ddG d2 B| G2 c c2 B| Gdd d2 d| A3- A2 D| G2 A/2A/2 B2 c| d2 B/2A/2 G2 A|\
 B2 cA-G A| G3- G2 z|
